X:1
T: Katrine's Answer
C:Ann Hooper
R:Jig
Q:180
K:D
M:6/8
L:1/16
|:A2|d6 d4e2|f4g2 a4b2|a2f2d2 B2g2f2|e4d2 c2B2A2|
d6 d4e2|f2g2a2 b6|a2f2d2 B2g2f2|e2d2c2 d4:|
|:c2|B4c2 d2e2f2|e2c2A2 A4c2|d2c2B2 E4^G2|A6 A4c2|1B4c2 d2e2f2|e2c2A2 a4f2|
e2c2A2 E2F2^G2|A6A4:|2d2c2d2 e2d2e2|f2e2f2 g2a2b2|a2f2d2 A2B2c2|d6d4||
